name_svg/Separatio.svg

<?xml version="1.0" encoding="UTF-8"?>
<svg id="_레이어_2" data-name="레이어 2" xmlns="http://www.w3.org/2000/svg" viewBox="0 0 935.69 300.93">
  <g id="kerning">
    <g>
      <path d="M450.07,203.57c-18.12,0-23.36-8.76-23.36-34.8h-.02v-4.48c0-.2,0-.39,0-.59v-54.72c0-18.19-7.36-25.4-17.89-19.97l-47.57,32.82-18.09,12.24v32.24l18.09-12.48v-25.5l29.64-20.63c7.57-5.27,17.93-4.46,17.93,16.05v13.49s-65.66,45.29-65.66,45.29v10.64c0,9.99,12,18.09,23.91,18.09h22.73c7.21-3.01,13.62-5.96,19.01-9.59h0c0,1.89,4.72,9.59,14.37,9.59h30.09v-7.69h-3.2ZM389.02,203.57h-8.66c-10.56,0-19.13-8.56-19.13-19.13v-8.3l47.57-32.81v26.93c0,26.84-19.78,33.31-19.78,33.31Z"/>
      <path d="M548.73,102.71l-44.34,30.59v-42.93s-46.89,34.68-46.89,34.68c-1.1.82-.16,2.52,1.13,2.04,3.65-1.39,8.11-4.24,12.81-6.78,6.81-3.67,15.07,1.33,15.07,9.06l.02,41.15c0,21.13-2.56,31.67-17.4,33.05-6.43.6-18.66,7.69-7.76,7.69h69.6v-7.69h-3.2c-18.12,0-23.36-8.76-23.36-34.8h-.02v-28.99s44.34-30.86,44.34-30.86v37.73l17.89-12.34v-43.95l-17.89,12.34Z"/>
      <path d="M680.49,203.57c-18.12,0-23.36-8.76-23.36-34.8h-.02v-4.48c0-.2,0-.39,0-.59v-54.72c0-18.19-7.36-25.4-17.89-19.97l-47.57,32.82-18.09,12.24v32.24l18.09-12.48v-25.5l29.64-20.63c7.57-5.27,17.93-4.46,17.93,16.05v13.49s-65.66,45.29-65.66,45.29v10.64c0,9.99,12,18.09,23.91,18.09h22.73c7.21-3.01,13.62-5.96,19.01-9.59h0c0,1.89,4.72,9.59,14.37,9.59h30.09v-7.69h-3.2ZM619.45,203.57h-8.66c-10.56,0-19.13-8.56-19.13-19.13v-8.3l47.57-32.81v26.93c0,26.84-19.78,33.31-19.78,33.31Z"/>
      <path d="M759.16,164.85v5.4c0,23.48-28.27,33.31-28.27,33.31h-.54c-10.77,0-19.75-13.17-19.75-22.52v-98.98l39.45-27.21v-6.07l-39.45,27.22V18.94h0V2.69l-46.89,34.68c-1.1.82-.16,2.52,1.13,2.04,3.65-1.39,8.11-4.24,12.81-6.78,6.81-3.67,15.07,1.33,15.07,9.06v46.64l-17.97,12.39v6.07l17.97-12.39v56.41h.01v30.43c0,16.22,9.19,30.02,24.46,30.02h16.65c22.18-9.25,43.23-22.03,43.23-47.56v-11.19l-17.89,12.34Z"/>
      <g>
        <path d="M842.19,203.57c-14,0-23.36-8.76-23.36-34.8v-99.36h0v-16.25l-46.89,34.68c-1.1.82-.16,2.52,1.13,2.04,3.65-1.39,8.11-4.24,12.81-6.78,6.81-3.67,15.07,1.33,15.07,9.06v78.36c0,21.13-7.28,33.05-18.72,33.05,0,0-4.74-.37-7.42,0-6.39.88-18.66,7.69-7.76,7.69h88.51v-7.69h-13.36Z"/>
        <path d="M797.15,26.99v17.13l20.92-15.34V2.69l-13.69,10.04c-4.54,3.33-7.22,8.62-7.22,14.26Z"/>
      </g>
      <path d="M118.52,62.27V21.73c0-7.41-1.22-12.99-3.38-16.64-3.14-5.32-8.27-6.54-14.52-3.33L0,71.21s0,51.44,0,51.48C0,141.92,23.24,160.45,51.85,140.65l48.77-33.64v50.36c0,26.84-33.64,46.2-33.64,46.2h-14.44c-11.96,0-26.12-4.41-31.94-22.69H2.24c6.14,21.17,23.73,30.39,38.24,30.39h27.27c26.35-8.38,50.76-30.84,50.76-60.45v-62.59l-17.89,12.34-51.79,35.73c-13.08,9.02-30.92,7.4-30.92-24.86,0-27.76-.02-46.13-.02-46.13L84.48,19.37c3.49-1.87,7.33-2.36,10.39-.29,1.26.85,2.39,2.14,3.3,3.95,1.51,2.97,2.44,7.34,2.44,13.49v38.1l17.89-12.34Z"/>
      <path d="M324.93,91.7c-3.14-5.32-8.27-6.54-14.52-3.33l-48.36,33.38v-31.39l-46.89,34.68c-1.1.82-.16,2.52,1.13,2.04,3.65-1.39,8.11-4.24,12.81-6.78,6.81-3.67,15.07,1.33,15.07,9.06v4.73s0,0,0,0v150.57h0v16.25l46.89-34.68c1.1-.82.16-2.52-1.13-2.04-3.65,1.39-8.11,4.24-12.81,6.78-6.81,3.67-15.07-1.33-15.07-9.06v-58.16c7.06,5.11,15.22,7.5,22.59,7.5,0,0,43.66-12.21,43.66-47.56v-55.35c0-7.41-1.22-12.99-3.38-16.64ZM310.41,152.06h0v18.2c0,26.84-25.62,33.31-25.62,33.31h-2.51c-5.31-.39-20.23-7.36-20.23-42.69v-17.56h0v-15.12l32.22-22.22c3.49-1.87,7.33-2.36,10.39-.29,1.26.85,2.39,2.14,3.3,3.95,1.51,2.97,2.44,7.34,2.44,13.49v28.93Z"/>
      <path d="M932.32,92.34c-3.14-5.32-8.27-6.54-14.52-3.33l-66.25,45.73v29.96c0,33.18,22.59,47.2,40.48,47.2,0,0,43.66-12.21,43.66-47.56v-55.35c0-7.41-1.22-12.99-3.38-16.64ZM917.8,152.69v18.2c0,26.84-25.62,33.31-25.62,33.31h-2.51c-5.31-.39-20.23-7.36-20.23-42.69v-32.68l32.22-22.22c3.49-1.87,7.33-2.36,10.39-.29,1.26.85,2.39,2.14,3.3,3.95,1.51,2.97,2.44,7.34,2.44,13.49v28.93h0Z"/>
      <path d="M193.93,97.71l-47.57,32.82h0s-15.88,10.96-15.88,10.96v39.76c0,16.22,9.19,30.02,24.46,30.02h19.98c22.18-9.25,36.91-17.95,36.91-47.56v-11.19l-17.89,12.34v5.4c0,26.84-19.78,33.31-19.78,33.31h-6.04c-10.79,0-19.54-8.75-19.54-19.54h0s62.07-42.82,62.07-42.82l1.19-.82v-55.02l-17.89,12.34ZM148.57,135.5l45.36-31.57v42.73l-45.36,31.29v-42.45Z"/>
    </g>
  </g>
</svg>

<svg width="936" height="301" viewBox="0 0 936 301" fill="none" xmlns="http://www.w3.org/2000/svg">
<g clip-path="url(#clip0_1_150)">
<path d="M450.07 203.57C431.95 203.57 426.71 194.81 426.71 168.77H426.69V164.29C426.69 164.09 426.69 163.9 426.69 163.7V108.98C426.69 90.79 419.33 83.58 408.8 89.01L361.23 121.83L343.14 134.07V166.31L361.23 153.83V128.33L390.87 107.7C398.44 102.43 408.8 103.24 408.8 123.75V137.24L343.14 182.53V193.17C343.14 203.16 355.14 211.26 367.05 211.26H389.78C396.99 208.25 403.4 205.3 408.79 201.67C408.79 203.56 413.51 211.26 423.16 211.26H453.25V203.57H450.05H450.07ZM389.02 203.57H380.36C369.8 203.57 361.23 195.01 361.23 184.44V176.14L408.8 143.33V170.26C408.8 197.1 389.02 203.57 389.02 203.57Z" fill="white"/>
<path d="M548.73 102.71L504.39 133.3V90.37L457.5 125.05C456.4 125.87 457.34 127.57 458.63 127.09C462.28 125.7 466.74 122.85 471.44 120.31C478.25 116.64 486.51 121.64 486.51 129.37L486.53 170.52C486.53 191.65 483.97 202.19 469.13 203.57C462.7 204.17 450.47 211.26 461.37 211.26H530.97V203.57H527.77C509.65 203.57 504.41 194.81 504.41 168.77H504.39V139.78L548.73 108.92V146.65L566.62 134.31V90.36L548.73 102.7V102.71Z" fill="white"/>
<path d="M680.49 203.57C662.37 203.57 657.13 194.81 657.13 168.77H657.11V164.29C657.11 164.09 657.11 163.9 657.11 163.7V108.98C657.11 90.79 649.75 83.58 639.22 89.01L591.65 121.83L573.56 134.07V166.31L591.65 153.83V128.33L621.29 107.7C628.86 102.43 639.22 103.24 639.22 123.75V137.24L573.56 182.53V193.17C573.56 203.16 585.56 211.26 597.47 211.26H620.2C627.41 208.25 633.82 205.3 639.21 201.67C639.21 203.56 643.93 211.26 653.58 211.26H683.67V203.57H680.47H680.49ZM619.45 203.57H610.79C600.23 203.57 591.66 195.01 591.66 184.44V176.14L639.23 143.33V170.26C639.23 197.1 619.45 203.57 619.45 203.57Z" fill="white"/>
<path d="M759.16 164.85V170.25C759.16 193.73 730.89 203.56 730.89 203.56H730.35C719.58 203.56 710.6 190.39 710.6 181.04V82.06L750.05 54.85V48.78L710.6 76V18.94V2.69L663.71 37.37C662.61 38.19 663.55 39.89 664.84 39.41C668.49 38.02 672.95 35.17 677.65 32.63C684.46 28.96 692.72 33.96 692.72 41.69V88.33L674.75 100.72V106.79L692.72 94.4V150.81H692.73V181.24C692.73 197.46 701.92 211.26 717.19 211.26H733.84C756.02 202.01 777.07 189.23 777.07 163.7V152.51L759.18 164.85H759.16Z" fill="white"/>
<path d="M842.19 203.57C828.19 203.57 818.83 194.81 818.83 168.77V69.41V53.16L771.94 87.84C770.84 88.66 771.78 90.36 773.07 89.88C776.72 88.49 781.18 85.64 785.88 83.1C792.69 79.43 800.95 84.43 800.95 92.16V170.52C800.95 191.65 793.67 203.57 782.23 203.57C782.23 203.57 777.49 203.2 774.81 203.57C768.42 204.45 756.15 211.26 767.05 211.26H855.56V203.57H842.2H842.19Z" fill="white"/>
<path d="M797.15 26.99V44.12L818.07 28.78V2.69L804.38 12.73C799.84 16.06 797.16 21.35 797.16 26.99H797.15Z" fill="white"/>
<path d="M118.52 62.27V21.73C118.52 14.32 117.3 8.73999 115.14 5.08999C112 -0.230012 106.87 -1.45001 100.62 1.75999L0 71.21C0 71.21 0 122.65 0 122.69C0 141.92 23.24 160.45 51.85 140.65L100.62 107.01V157.37C100.62 184.21 66.98 203.57 66.98 203.57H52.54C40.58 203.57 26.42 199.16 20.6 180.88H2.24C8.38 202.05 25.97 211.27 40.48 211.27H67.75C94.1 202.89 118.51 180.43 118.51 150.82V88.23L100.62 100.57L48.83 136.3C35.75 145.32 17.91 143.7 17.91 111.44C17.91 83.68 17.89 65.31 17.89 65.31L84.48 19.37C87.97 17.5 91.81 17.01 94.87 19.08C96.13 19.93 97.26 21.22 98.17 23.03C99.68 26 100.61 30.37 100.61 36.52V74.62L118.5 62.28L118.52 62.27Z" fill="white"/>
<path d="M324.93 91.7C321.79 86.38 316.66 85.16 310.41 88.37L262.05 121.75V90.36L215.16 125.04C214.06 125.86 215 127.56 216.29 127.08C219.94 125.69 224.4 122.84 229.1 120.3C235.91 116.63 244.17 121.63 244.17 129.36V134.09V284.66V300.91L291.06 266.23C292.16 265.41 291.22 263.71 289.93 264.19C286.28 265.58 281.82 268.43 277.12 270.97C270.31 274.64 262.05 269.64 262.05 261.91V203.75C269.11 208.86 277.27 211.25 284.64 211.25C284.64 211.25 328.3 199.04 328.3 163.69V108.34C328.3 100.93 327.08 95.35 324.92 91.7H324.93ZM310.41 152.06V170.26C310.41 197.1 284.79 203.57 284.79 203.57H282.28C276.97 203.18 262.05 196.21 262.05 160.88V143.32V128.2L294.27 105.98C297.76 104.11 301.6 103.62 304.66 105.69C305.92 106.54 307.05 107.83 307.96 109.64C309.47 112.61 310.4 116.98 310.4 123.13V152.06H310.41Z" fill="white"/>
<path d="M932.32 92.34C929.18 87.02 924.05 85.8 917.8 89.01L851.55 134.74V164.7C851.55 197.88 874.14 211.9 892.03 211.9C892.03 211.9 935.69 199.69 935.69 164.34V108.99C935.69 101.58 934.47 96 932.31 92.35L932.32 92.34ZM917.8 152.69V170.89C917.8 197.73 892.18 204.2 892.18 204.2H889.67C884.36 203.81 869.44 196.84 869.44 161.51V128.83L901.66 106.61C905.15 104.74 908.99 104.25 912.05 106.32C913.31 107.17 914.44 108.46 915.35 110.27C916.86 113.24 917.79 117.61 917.79 123.76V152.69H917.8Z" fill="white"/>
<path d="M193.93 97.71L146.36 130.53L130.48 141.49V181.25C130.48 197.47 139.67 211.27 154.94 211.27H174.92C197.1 202.02 211.83 193.32 211.83 163.71V152.52L193.94 164.86V170.26C193.94 197.1 174.16 203.57 174.16 203.57H168.12C157.33 203.57 148.58 194.82 148.58 184.03L210.65 141.21L211.84 140.39V85.37L193.95 97.71H193.93ZM148.57 135.5L193.93 103.93V146.66L148.57 177.95V135.5Z" fill="white"/>
</g>
<defs>
<clipPath id="clip0_1_150">
<rect width="935.69" height="300.93" fill="white"/>
</clipPath>
</defs>
</svg>
